icons/heart-outline.svg

<svg xmlns="http://www.w3.org/2000/svg" width="24" height="24" viewBox="0 0 24 24">
    <path fill="#3A3A47" fill-rule="evenodd" d="M16.5 3C19.58 3 22 5.627 22 8.995c0 5.41-4.78 8.52-9.003 11.63-.367.25-.7.373-.997.37-.297-.004-.63-.127-.996-.37C6.99 17.727 2 14.478 2 8.995 2 5.627 4.42 3 7.5 3c1.74 0 3.41.883 4.5 2.267C13.09 3.883 14.76 3 16.5 3zm.002 2c-2.231 0-3.41 1.616-4.5 3-1.09-1.384-2.345-3-4.5-3-2.032 0-3.5 2.001-3.5 3.995-.002 4.329 5.01 7.46 8 10.055 3.01-2.633 7.998-5.726 8-10.055C20.002 7 18.602 5 16.502 5z"/>
</svg>

<svg width="24" height="24" viewBox="0 0 24 24" fill="none" xmlns="http://www.w3.org/2000/svg">
<path fill-rule="evenodd" clip-rule="evenodd" d="M12 20.994C11.703 20.991 11.37 20.868 11.004 20.625C6.99 17.727 2 14.478 2 8.995C2 5.627 4.42 3 7.5 3C9.24 3 10.91 3.883 12 5.267C13.09 3.883 14.76 3 16.5 3C19.58 3 22 5.627 22 8.995C22 14.405 17.22 17.515 12.997 20.625C12.63 20.875 12.297 20.998 12 20.995V20.994ZM12.002 19.05C15.012 16.417 20 13.324 20.002 8.995C20.002 7 18.602 5 16.502 5C14.271 5 13.092 6.616 12.002 8C10.912 6.616 9.657 5 7.502 5C5.47 5 4.002 7.001 4.002 8.995C4 13.324 9.012 16.455 12.002 19.05Z" fill="#3A3A47"/>
</svg>
